X:382
T: ICH KLAGE HIER DIR ECHO DIR
N: B0456
O: Europa, Mitteleuropa, Deutschland
R: Liebes - Lied, Leid, Klage
M: 2/4
L: 1/16
K: G
ed | d3BG2ed | d3BA2
dB | G2G2AGAB | G4z2
dB | A3cB3d | dcAFG2
dB | A3cB3d | dcAFG2
ed | d3BG2ed | d3BA2
dB | G2G2AGAB | G4z2

